X:1
T:Title
%%score { ( 1 3 ) | ( 2 4 ) }
L:1/8
M:4/4
K:Ab
V:1 treble nm="Grand Piano"
V:3 treble 
V:2 bass 
V:4 bass 
V:1
 z4 z2[Q:1/4=94] cB | AAAA AEAB | [Ec][Ec][Ec][Ec] c2 cd | ee[Ec][EB] [EA]2 [EB][Ec] | %4
[M:9/8] B6- B z z |[M:4/4] AAAA AEAB | [Ec][Ec][Ec]c c2 [Ec][Ec] | %7
 [EB][EB][EB][Ec] [EB][CFA][B,EG][A,=DF] |[M:7/8] E-E-E- E- E3 |[M:1/4] c>_c |[M:4/4] c6 z2 | %11
 E6 z2 | [CA][CA][CA][DB] [Ec][Ec][EB][EA] | B6 z2 | e6 z2 |[M:11/8] A-A-A-A-A-A- A3 z2 | %16
[M:4/4] [A,CE][A,CE][Fd][Fd] ccBB |[M:3/4] A6 |] %18
V:2
 z4 z2 [A,E][A,DE] | [A,CE][A,CE][A,CE][A,CE] [A,CE][A,C][A,C][E,G,E] | %2
 [A,,A,][A,,A,][A,,A,][A,,A,] [A,E]2 [A,E][A,B,E] | %3
 [A,CE][A,CE][A,,A,][B,,G,] [C,A,]2 [B,,G,][A,,A,] | %4
[M:9/8] [E,G,E]2 [B,,A,] [B,,A,] [E,G,]2- [E,G,][A,E][A,DE] | %5
[M:4/4] [A,CE][A,CE][A,CE][A,CE] [A,CE][A,C][A,C][E,G,E] | %6
 [A,,A,][A,,A,][C,A,][E,A,E] [A,E]2 [A,,A,][A,,A,] | %7
 [B,,G,][B,,G,][B,,G,][B,,A,] [B,,G,]B,,B,,B,, |[M:7/8] z2 G, A, B,3 |[M:1/4] E>=D |[M:4/4] E6 z2 | %11
 [A,,A,]2 [B,,G,]>[B,,G,] [A,,A,]2 [A,,A,][A,,A,] | %12
 [A,,E,][A,,E,][A,,A,][A,,A,] [A,,A,][A,,A,][B,,G,][C,A,] | %13
 [E,G,E]2 [B,,A,][B,,A,] [E,G,]2[K:treble] A>B | c6[K:bass] z2 |[M:11/8] F-F-F-F-F-F- F3 z2 | %16
[M:4/4] E,E,[E,A,][A,,A,] [E,A,E][E,A,E][E,G,D][E,G,D] |[M:3/4] z2 F,>F, E,2 |] %18
V:3
 x8 | x8 | x8 | x8 |[M:9/8] z2 =D D E2- EcB |[M:4/4] x8 | x8 | x8 |[M:7/8] G,2 B, C D3 | %9
[M:1/4] x2 |[M:4/4] z2 (3:2:2A,2 A, A,2 [CA]>[CF] | C2 D>D C2 [CE][CE] | x8 | z2 =DD E2 c>d | %14
 z2 E>E E2 c>B |[M:11/8] z2 C>CD-D- D3 [G,EG][A,DF] |[M:4/4] x8 |[M:3/4] [A,C]2 D>D C2 |] %18
V:4
 x8 | x8 | x8 | x8 |[M:9/8] x9 |[M:4/4] x8 | x8 | x8 |[M:7/8] E,-E,-E,- E,- E,3 |[M:1/4] x2 | %10
[M:4/4] z2 (3A,,C,E, z2 [A,,A,]>[A,,A,] | x8 | x8 | x6[K:treble] x2 | %14
 z2[K:bass] A,,>A,, A,,2 E>=E |[M:11/8] z2 F,>F,D,-D,- D,3 D,D, |[M:4/4] x8 |[M:3/4] A,,6 |] %18

